X: 30152
T: WASHINGTON'S BIRTH DAY QUICKSTEP
C: E. L. White
%R: quickstep, polka, reel
B: Elias Howe "The Musician's Companion" Part 3 1844 p.15 #2
S: http://imslp.org/wiki/The_Musician's_Companion_(Howe,_Elias)
S: https://archive.org/stream/firstthirdpartof03howe/#page/66/mode/1up
Z: 2016 John Chambers <jc:trillian.mit.edu>
N: Changed notes in bar 15 from 8th notes to 16ths.
M: 2/4
L: 1/16
K: Bb
% - - - - - - - - - - - - - - - - - - - - - - - - -
F2 |\
B2dc B2ed | c2fe d2ba | aggf feed | dccB BAGF |\
B2dc B2ed | c2fe d2ba | aggf feed | dcBA B2 :|
|: de |\
.f2.f2.f2.f2 | fedc B2 ef | .g2.g2.g2.g2 | gfed c2 de |\
f2fg e2ef | d2de c2dc | BABc dBcA | B2B2B2 :|
% - - - - - - - - - - - - - - - - - - - - - - - - -
